X:0186
T:A Spanish March.
M:2/4
L:1/8
Q:1/4=88
I: :: ::
Z:Jack Campin * www.campin.me.uk * 2009
K:D
df fe/d/|gg g(f/e/)|dddd|e/d/c/B/ Az |
df fe/d/|gg g(f/e/)|dddd|e/d/c/B/ Az:|
dd/e/ (d/c/B/A/)|GG G2|
ee/f/  e/d/c/B/ |AA A2|
fefe |(d/e/)(f/g/) a>g|
fefe | d/e/f/g/    a>g|f2e2|d4:|
d2d2|d2A2|dAdA|(F/G/A/F/) Dz|
fef>e| d/e/f/g/    a>g|
fef>e| d/e/f/g/    a>g|f2e2|d4:|
<end>
<start>
